!!!COM: Palestrina, Giovanni Perluigi da
!!!OPR: Missa L'homme arme (1570)
!!!OMD: Credo
!!!OTL: First Section
**kern	**kern	**kern	**kern	**kern
*Ibass	*Itenor	*Itenor	*Icalto	*Icant
!Bassus	!Tenor 2	!Tenor 1	!Altus	!Cantus
*clefF4	*clefGv2	*clefGv2	*clefG2	*clefG2
*k[]	*k[]	*k[]	*k[]	*k[]
*G:mix	*G:mix	*G:mix	*G:mix	*G:mix
*M4/2	*M4/2	*M4/2	*M4/2	*M4/2
=1	=1	=1	=1	=1
1C	0r	0r	0r	0r
2C	.	.	.	.
2C	.	.	.	.
=2	=2	=2	=2	=2
1F	0r	0r	1c	0r
2E	.	.	2c	.
[2A	.	.	2c	.
=3	=3	=3	=3	=3
2A]	0r	0r	1f	0r
4G	.	.	.	.
4F	.	.	.	.
2G	.	.	1e	.
2A	.	.	.	.
=4	=4	=4	=4	=4
4D	0r	0r	2.a	0r
4E	.	.	.	.
4F	.	.	.	.
4G	.	.	4g	.
4A	.	.	2f	.
4B	.	.	.	.
[2c	.	.	2e	.
=5	=5	=5	=5	=5
2c]	1G	0r	0d	0r
4B	.	.	.	.
4A	.	.	.	.
1B	2G	.	.	.
.	2G	.	.	.
=6	=6	=6	=6	=6
2c	1c	0r	2.e	1g
2C	.	.	.	.
.	.	.	8d	.
.	.	.	8c	.
2G	2B	.	4d	2g
.	.	.	4G	.
2E	[2e	.	[2g	2g
=7	=7	=7	=7	=7
1A	2e]	0r	4g]	1cc
.	.	.	8f	.
.	.	.	8e	.
.	4d	.	2f#	.
.	4c	.	.	.
1G	2d	.	1g	1b
.	[2e	.	.	.
=8	=8	=8	=8	=8
0r	4e]	0r	1c	2.ee
.	4d	.	.	.
.	4c	.	.	.
.	4B	.	.	4dd
.	4A	.	2c	4cc
.	4G	.	.	4b
.	2A	.	2c	4a
.	.	.	.	4g
=9	=9	=9	=9	=9
0r	4F	0r	1f	1a
.	4G	.	.	.
.	4A	.	.	.
.	4B	.	.	.
.	4c	.	1e	2g
.	4d	.	.	.
.	4e	.	.	[2cc
.	4f	.	.	.
=10	=10	=10	=10	=10
0r	2.g	[0G	1d	2cc]
.	.	.	.	4b
.	4f	.	.	4a
.	2e	.	2.g	2b
.	4d	.	.	2b
.	4c	.	4f	.
=11	=11	=11	=11	=11
0r	2.B	0G]	2e	2.g
.	.	.	4d	.
.	4c	.	4c	4a
.	[1d	.	2.B	2b
.	.	.	.	4g
.	.	.	4c	4a
=12	=12	=12	=12	=12
0r	1d]	[0G	2d	4b
.	.	.	.	4cc
.	.	.	2G	2dd
.	1e	.	[1g	2b
.	.	.	.	[2cc
=13	=13	=13	=13	=13
0r	0d	1G]	0g]	2cc]
.	.	.	.	4b
.	.	.	.	4a
.	.	[1G	.	1b
=14	=14	=14	=14	=14
1C	1e	1G]	2r	2.cc
.	.	.	2e	.
.	.	.	.	8b
.	.	.	.	8a
2C	1r	[1c	2e	1g
2C	.	.	2e	.
=15	=15	=15	=15	=15
1F	1r	0c_	1a	0r
2E	2r	.	2g	.
2E	2e	.	2g	.
=16	=16	=16	=16	=16
0A	2e	0c_	4cc	2r
.	.	.	4b	.
.	2e	.	4a	2cc
.	.	.	4g	.
.	1a	.	2f	2cc
.	.	.	2e	2cc
=17	=17	=17	=17	=17
2.F	2A	1c]	1.a	1ff
.	2A	.	.	.
4G	.	.	.	.
4A	4c	[1c	.	2.ee
4B	4d	.	.	.
[2c	4e	.	4g	.
.	4f	.	4f	4dd
=18	=18	=18	=18	=18
4c]	1g	0c]	4e	1.cc
4B	.	.	4f#	.
4A	.	.	1g	.
4G	.	.	.	.
1A	1c	.	.	.
.	.	.	2f#	2a
=19	=19	=19	=19	=19
[0G	0d	[0B	1g	4b
.	.	.	.	4a
.	.	.	.	4b
.	.	.	.	4cc
.	.	.	2r	4dd
.	.	.	.	4cc
.	.	.	[2g	4b
.	.	.	.	4a
=20	=20	=20	=20	=20
1G]	2r	1B]	2g]	1g
.	1d	.	2d	.
1r	.	[1A	2f	[1a
.	2c	.	2e	.
=21	=21	=21	=21	=21
1.D	1f	0A_	4d	1a]
.	.	.	4e	.
.	.	.	4f	.
.	.	.	4g	.
.	2f	.	1a	1r
2C	2e	.	.	.
=22	=22	=22	=22	=22
2F	2c	0A_	1.a	2r
2D	2d	.	.	1dd
1A	1e	.	.	.
.	.	.	2a	2cc
=23	=23	=23	=23	=23
1F	1r	1A]	0cc	1ff
1C	2r	[1G	.	2ee
.	[2c	.	.	2cc
=24	=24	=24	=24	=24
1G	2c]	0G_	1r	2dd
.	2B	.	.	2dd
1C	[1e	.	2r	1cc
.	.	.	[2c	.
=25	=25	=25	=25	=25
2r	2e]	0G_	2c]	1r
2G	2d	.	2B	.
2E	2.g	.	2.e	2r
4C	.	.	.	[2cc
4D	4f	.	4f	.
=26	=26	=26	=26	=26
4E	2e	1G]	1.g	2cc]
4F	.	.	.	.
2G	2d	.	.	2b
1E	2c	1r	.	1ee
.	2B	.	2g	.
=27	=27	=27	=27	=27
2.F	2A	0r	1a	1a
.	1c	.	.	.
4E	.	.	.	.
2D	.	.	1f	2dd
2D	2B	.	.	2dd
=28	=28	=28	=28	=28
1C	1c	0r	2.e	1g
.	.	.	4f	.
1G	2r	.	[1g	1b
.	2d	.	.	.
=29	=29	=29	=29	=29
2G	2e	1r	1g]	2b
1G	2d	.	.	1b
.	2B	[1d	1r	.
2F#	[2d	.	.	2a
=30	=30	=30	=30	=30
1.G	4d]	0d_	2r	2.b
.	4c	.	.	.
.	4B	.	2g	.
.	4A	.	.	4cc
.	1B	.	2g	[1dd
2G	.	.	[2g	.
=31	=31	=31	=31	=31
1D	1A	0d_	2g]	1dd]
.	.	.	2f#	.
1r	4G	.	2g	1b
.	4A	.	.	.
.	4B	.	2g	.
.	4c	.	.	.
=32	=32	=32	=32	=32
0D	4d	1d]	2f	2a
.	4e	.	.	.
.	4f	.	4d	1ff
.	4g	.	4e	.
.	2a	[1d	4f	.
.	.	.	4g	.
.	[2f	.	2a	2dd
=33	=33	=33	=33	=33
0BB-	2f]	0d]	0b-	2.ff
.	2d	.	.	.
.	.	.	.	4ee
.	1f	.	.	4dd
.	.	.	.	4cc
.	.	.	.	2dd
=34	=34	=34	=34	=34
0C	2.e	[0G	1g	2.cc
.	4d	.	.	4dd
.	4c	.	1g	1ee
.	4B	.	.	.
.	2c	.	.	.
=35	=35	=35	=35	=35
1G	2.B	1G]	2r	1dd
.	.	.	1g	.
.	4c	.	.	.
1r	1d	1r	.	2r
.	.	.	2f#	[2dd
=36	=36	=36	=36	=36
0r	0r	0r	2g	2dd]
.	.	.	2e	2cc#
.	.	.	1d	2dd
.	.	.	.	2b-
=37	=37	=37	=37	=37
0r	0r	[0d	1.f	1a
.	.	.	.	[1ff
.	.	.	2g	.
=38	=38	=38	=38	=38
0r	0r	1d]	2.a	2ff]
.	.	.	.	2ee
.	.	.	8g	.
.	.	.	8a	.
.	.	[1d	2b-	2dd
.	.	.	[2a	2cc
=39	=39	=39	=39	=39
0r	0r	0d]	4a]	2.b-
.	.	.	4g	.
.	.	.	1g	.
.	.	.	.	8a
.	.	.	.	8g
.	.	.	.	2a
.	.	.	2f#	2a
=40	=40	=40	=40	=40
1.G	2r	[0d	2g	1g
.	1g	.	1b-	.
.	.	.	.	1r
2G	2g	.	2b-	.
=41	=41	=41	=41	=41
2D	1f	1d]	2a	2r
2D	.	.	2f	1ff
1F	2f	[1c	1a	.
.	4c	.	.	2ff
.	4d	.	.	.
=42	=42	=42	=42	=42
0C	4e	0c]	1g	2ee
.	4d	.	.	.
.	4e	.	.	2cc
.	4f	.	.	.
.	2g	.	2r	1ee
.	2c	.	[2g	.
=43	=43	=43	=43	=43
1.G	1d	[0B	2g]	1dd
.	.	.	2g	.
.	2r	.	1g	1dd
2G	[2d	.	.	.
=44	=44	=44	=44	=44
1G	2d]	1B]	2d	2dd
.	2d	.	2d	1dd
2D	1d	[1A	2.f	.
2D	.	.	.	2a
.	.	.	4g	.
=45	=45	=45	=45	=45
2.F	2c	0A]	2a	2a
.	2A	.	2a	2.cc
4G	.	.	.	.
4A	2.c	.	2.e	.
4B	.	.	.	4dd
[2c	.	.	.	[2ee
.	4d	.	4f	.
=46	=46	=46	=46	=46
2c]	4e	[0G	[0g	2ee]
.	4f	.	.	.
4B	1g	.	.	4dd
4A	.	.	.	4cc
2B	.	.	.	2dd
[2c	2e	.	.	[2gg
=47	=47	=47	=47	=47
2c]	1d	1G]	0g]	2gg]
2B	.	.	.	2gg
[1c	2.c	1r	.	1ee
.	4d	.	.	.
=48	=48	=48	=48	=48
1c]	1e	0r	1g	2r
.	.	.	.	2gg
1r	1d	.	2a	2ff
.	.	.	2b	2dd
=49	=49	=49	=49	=49
1r	1r	0r	1cc	1ee
1G	1g	.	1b	1dd
=50	=50	=50	=50	=50
2A	2f	1r	1r	1r
2B	2d	.	.	.
1c	1e	[1g	2r	2r
.	.	.	2g	2gg
=51	=51	=51	=51	=51
1G	1d	0g_	2b	2gg
.	.	.	2b	2dd
1r	1c	.	2cc	2ee
.	.	.	2cc	2ee
=52	=52	=52	=52	=52
1G	2r	0g_	1b	0dd
.	2g	.	.	.
2B	2g	.	1r	.
2B	2d	.	.	.
=53	=53	=53	=53	=53
2c	2e	1g]	2r	2r
2c	2e	.	2g	1gg
1G	1d	[1g	1b	.
.	.	.	.	2dd
=54	=54	=54	=54	=54
1r	1c	0g]	1cc	1ee
1G	1r	.	2.b-	1dd
.	.	.	8a	.
.	.	.	8g	.
=55	=55	=55	=55	=55
2.D	2r	[0f	0a	2r
.	1d	.	.	2ff
4E	.	.	.	.
1F	.	.	.	2ff
.	2A	.	.	2cc
=56	=56	=56	=56	=56
1BB-	1B-	1f_	2r	1dd
.	.	.	2f	.
1F	[1A	1f_	2f	1cc
.	.	.	2c	.
=57	=57	=57	=57	=57
1D	2A]	0f]	1d	2r
.	2F	.	.	2ff
1F	2A	.	1c	2ff
.	2A	.	.	2cc
=58	=58	=58	=58	=58
1BB-	0B-	[0f	2r	4dd
.	.	.	.	4ee
.	.	.	1d	4ff
.	.	.	.	4ee
[1B-	.	.	.	4dd
.	.	.	.	4cc
.	.	.	[2f	[2dd
=59	=59	=59	=59	=59
2B-]	1F	1f]	2f]	2dd]
2A	.	.	2c	1cc
1G	1r	[1g	1d	.
.	.	.	.	2b
=60	=60	=60	=60	=60
0C	1r	0g_	0e	1cc
.	2r	.	.	2r
.	[2c	.	.	[2ee
=61	=61	=61	=61	=61
0r	2c]	0g_	0r	2ee]
.	2c	.	.	2ee
.	2c	.	.	2ee
.	2B	.	.	2dd
=62	=62	=62	=62	=62
0r	2.e	1g]	0r	2.gg
.	4d	.	.	4ff
.	2c	[1g	.	2ee
.	2B	.	.	2dd
=63	=63	=63	=63	=63
1r	1c	0g]	2r	1ee
.	.	.	1cc	.
2r	1G	.	.	1dd
[2G	.	.	4b-	.
.	.	.	4a	.
=64	=64	=64	=64	=64
2G]	0r	[0d	1.b-	2r
2G	.	.	.	1dd
2G	.	.	.	.
2F	.	.	2a	2dd
=65	=65	=65	=65	=65
2.B-	0r	1d_	2g	2.dd
.	.	.	2f	.
4A	.	.	.	4cc
2G	.	1d_	2g	2b-
2F	.	.	2a	2a
=66	=66	=66	=66	=66
1G	1r	0d]	1b-	1g
[1D	2r	.	[1a	1f
.	2A	.	.	.
=67	=67	=67	=67	=67
0D]	2A	[0d	1a]	2r
.	1f	.	.	2a
.	.	.	2r	2a
.	2f	.	2a	[2ff
=68	=68	=68	=68	=68
0r	2d	1d]	2b-	2ff]
.	2.f	.	2a	2ff
.	.	1r	2f	2dd
.	4e	.	.	.
.	2d	.	[2a	2ff
=69	=69	=69	=69	=69
0r	2c#	0r	4a]	2ee
.	.	.	4g	.
.	2d	.	2f	1dd
.	1A	.	2e	.
.	.	.	2e	2cc#
=70	=70	=70	=70	=70
0G	2r	[0g	2d	1dd
.	2d	.	2B	.
.	2d	.	[1B	1r
.	2d	.	.	.
=71	=71	=71	=71	=71
2E	0e	1g_	2B]	0r
2E	.	.	2B	.
2C	.	1g_	1c	.
[2c	.	.	.	.
=72	=72	=72	=72	=72
2c]	1d	0g]	1G	2r
4B	.	.	.	2dd
4A	.	.	.	.
2B	1d	.	2r	2dd
2B	.	.	2g	2dd
=73	=73	=73	=73	=73
1c	1c	[0g	2e	0ee
.	.	.	2e	.
1C	1r	.	2c	.
.	.	.	[2cc	.
=74	=74	=74	=74	=74
1r	0r	1g]	2cc]	1.dd
.	.	.	2b	.
1D	.	1f	[1a	.
.	.	.	.	2dd
=75	=75	=75	=75	=75
2.F	1A	[0f	0a]	1cc
4G	.	.	.	.
2A	2c	.	.	1r
2F	2c	.	.	.
=76	=76	=76	=76	=76
2B-	2d	0f]	0r	0r
2A	2c	.	.	.
2B-	2d	.	.	.
2A	2c	.	.	.
=77	=77	=77	=77	=77
1F	4c	1f	2r	1a
.	4B-	.	.	.
.	4A	.	2f	.
.	4G	.	.	.
1r	2F	1f	2a	2cc
.	2f	.	2a	2cc
=78	=78	=78	=78	=78
0r	2B-	0f	2b-	2dd
.	2f	.	2a	2cc
.	1d	.	2b-	2dd
.	.	.	2a	[2ff
=79	=79	=79	=79	=79
2r	1c	[0g	1cc	2ff]
2c	.	.	.	4ee
.	.	.	.	4dd
1c	2r	.	2r	1ee
.	2c	.	2c	.
=80	=80	=80	=80	=80
1C	1c	0g]	0e	2.ee
.	.	.	.	8dd
.	.	.	.	8cc
2.E	1G	.	.	1b
4F	.	.	.	.
=81	=81	=81	=81	=81
2.G	2.B	1g	1.d	2r
.	.	.	.	2dd
4A	4c	.	.	.
2B	2d	1g	.	2dd
2c	2e	.	2c	2g
=82	=82	=82	=82	=82
2G	1d	[0g	2.B	2.b
2G	.	.	.	.
.	.	.	4A	4cc
2G	1G	.	2B	2dd
2C	.	.	2c	[2ee
=83	=83	=83	=83	=83
2.E	2r	1g]	2.G	2ee]
.	2.G	.	.	4dd
4F	.	.	4A	4cc
[1G	.	[1d	4B	2b
.	4A	.	4c	.
.	4B	.	2d	2g
.	4c	.	.	.
=84	=84	=84	=84	=84
1G]	2d	0d]	2G	2.b
.	2B	.	1g	.
.	.	.	.	4cc
[1D	[1A	.	.	1dd
.	.	.	4f	.
.	.	.	4e	.
=85	=85	=85	=85	=85
1D]	1A]	0r	1f#	1dd
1G	1G	.	1g	1b
=86	=86	=86	=86	=86
1r	1r	1r	1r	1r
[1C	[1c	[1g	[1e	[1ee
=87	=87	=87	=87	=87
1C]	1c]	0g_	1e]	1ee]
1C	1c	.	1e	1cc
=88	=88	=88	=88	=88
1G	1B	0g_	1d	1dd
1C	2c	.	1c	1ee
.	[2e	.	.	.
=89	=89	=89	=89	=89
1C	4e]	1g]	1c	1ee
.	4d	.	.	.
.	1c	.	.	.
[1G	.	[1g	[1d	[1dd
.	4B	.	.	.
.	4A	.	.	.
=90	=90	=90	=90	=90
1G]	1B	0g]	1d]	1dd]
1r	1r	.	1r	1r
=91	=91	=91	=91	=91
0D	2r	[0a	1d	0ff
.	1d	.	.	.
.	.	.	2f	.
.	[2f	.	[2d	.
=92	=92	=92	=92	=92
1D	4f]	1a_	4d]	1dd
.	4e	.	4e	.
.	1d	.	2f	.
1A	.	1a_	1e	1ee
.	2c#	.	.	.
=93	=93	=93	=93	=93
1D	1d	0a]	1d	1ff
1F	1A	.	2.c	1ff
.	.	.	4d	.
=94	=94	=94	=94	=94
0C	0c	[0g	0e	0ee
=95	=95	=95	=95	=95
1r	1r	1g]	1r	1r
1F	1c	[1f	[1a	[1ff
=96	=96	=96	=96	=96
0D	0d	0f]	1a]	1ff]
.	.	.	1a	1dd
=97	=97	=97	=97	=97
1A	2c	[0e	1cc	1.ee
.	2A	.	.	.
1G#	1B	.	1b	.
.	.	.	.	2ee
=98	=98	=98	=98	=98
1A	1.c	1e_	1a	2cc
.	.	.	.	2a
1A	.	1e_	1a	2.cc
.	2c	.	.	.
.	.	.	.	4dd
=99	=99	=99	=99	=99
1E	1B	0e]	1g#	1ee
1A	[1A	.	1a	1cc#
=100	=100	=100	=100	=100
1.D	1A]	[0d	1.f#	1dd
.	[1d	.	.	[1a
2E	.	.	2g	.
=101	=101	=101	=101	=101
1F#	2d]	0d]	1a	1a]
.	2c	.	.	.
1G	2B	.	[1g	2.b
.	2G	.	.	.
.	.	.	.	4cc
=102	=102	=102	=102	=102
1D	1A	[0d	2g]	1dd
.	.	.	4f	.
.	.	.	4e	.
1D	1A	.	1f#	1dd
=103	=103	=103	=103	=103
0G	0G	0d]	0g	0b
*-	*-	*-	*-	*-
!!!CDT: 1525/^1526/-1594/2/2
!!!OCY: Italia
!!!AGN: Mass (Tenor)
!!!AST: renaissance, vocal
!!!ASW: Popular Song
!!!PWK: Masses, Book 3
!!!RNB: Cadence finals: C,D
!!!YOR: Le Opere Complete, v. 6, p. 97
!!!YOO: Rome, Italy: Fratelli Scalera
!!!END: 1992//
!!!EED: John Miller
!!!YEC: Copyright 2000, John Miller
!!!YEN: United States of America
!!!YEM: Rights to all derivative electronic formats reserved.
!!!YEM: Refer to licensing agreement for further details.
!!!YEM: This file must be accompanied by the licensing agreement.
!!!YEM: A copy of the licensing agreement may be found at http://www.music-cog.ohio-state.edu/HumdrumDatabases/Palestrina/license.txt
!!!EMD: converted to Humdrum by Bret Aarden
